publican-fedora/en-US/images/title_logo.svg

<?xml version="1.0" encoding="UTF-8" standalone="no"?>
<!-- Created with Inkscape (http://www.inkscape.org/) -->

<svg
   xmlns:svg="http://www.w3.org/2000/svg"
   xmlns="http://www.w3.org/2000/svg"
   version="1.0"
   width="220"
   height="70"
   id="svg6180">
  <defs
     id="defs6182" />
  <g
     transform="translate(-266.55899,-345.34488)"
     id="layer1">
    <path
       d="m 316.7736,397.581 c 0,0 0,0 -20.53889,0 0.3327,4.45245 3.92157,7.77609 8.70715,7.77609 3.38983,0 6.31456,-1.39616 8.64094,-3.65507 0.46553,-0.46679 0.99726,-0.59962 1.59519,-0.59962 0.79781,0 1.59561,0.39932 2.12692,1.06388 0.3327,0.46553 0.53216,0.99726 0.53216,1.52857 0,0.73118 -0.3327,1.52857 -0.93106,2.12734 -2.7919,2.99052 -7.51086,4.98503 -12.16403,4.98503 -8.44149,0 -15.22074,-6.77967 -15.22074,-15.22158 0,-8.44149 6.58022,-15.22074 15.02171,-15.22074 8.37529,0 14.62323,6.51317 14.62323,15.08749 0,1.26418 -1.12924,2.12861 -2.39258,2.12861 z m -12.23065,-11.76512 c -4.45329,0 -7.51085,2.92473 -8.17499,7.17731 10.03626,0 16.35083,0 16.35083,0 -0.59836,-4.05355 -3.78874,-7.17731 -8.17584,-7.17731 z"
       id="path11"
       style="fill:#3c6eb4" />
    <path
       d="m 375.46344,410.80807 c -8.44106,0 -15.22074,-6.77968 -15.22074,-15.22159 0,-8.44149 6.77968,-15.22074 15.22074,-15.22074 8.44234,0 15.22159,6.77925 15.22159,15.22074 -4.2e-4,8.44149 -6.77968,15.22159 -15.22159,15.22159 z m 0,-24.65992 c -5.31688,0 -8.77377,4.25427 -8.77377,9.43833 0,5.18364 3.45689,9.43833 8.77377,9.43833 5.31731,0 8.77504,-4.25469 8.77504,-9.43833 -4.2e-4,-5.18406 -3.45773,-9.43833 -8.77504,-9.43833 z"
       id="path13"
       style="fill:#3c6eb4" />
    <path
       d="m 412.66183,380.36574 c -4.45963,0 -7.40966,1.319 -10.01391,4.62956 l -0.24036,-1.53995 0,0 c -0.20198,-1.60743 -1.57326,-2.84926 -3.23382,-2.84926 -1.80139,0 -3.26206,1.459 -3.26206,3.26081 0,0.003 0,0.005 0,0.008 l 0,0 0,0.003 0,0 0,23.40712 c 0,1.79464 1.46194,3.25743 3.257,3.25743 1.79465,0 3.25744,-1.46279 3.25744,-3.25743 l 0,-12.56209 c 0,-5.71621 4.98502,-8.57432 10.23613,-8.57432 1.59519,0 2.85726,-1.32953 2.85726,-2.92515 0,-1.59561 -1.26207,-2.85726 -2.85768,-2.85726 z"
       id="path15"
       style="fill:#3c6eb4" />
    <path
       d="m 447.02614,395.58648 c 0.0666,-8.17541 -5.78326,-15.22074 -15.222,-15.22074 -8.44192,0 -15.28779,6.77925 -15.28779,15.22074 0,8.44191 6.64684,15.22159 14.68985,15.22159 4.01434,0 7.62682,-2.06621 9.23846,-4.22518 l 0.79359,2.01434 0,0 c 0.42589,1.13177 1.5176,1.93717 2.7978,1.93717 1.65001,0 2.98756,-1.33671 2.99009,-2.98545 l 0,0 0,-7.80687 0,0 0,-4.1556 z m -15.222,9.43833 c -5.31773,0 -8.77419,-4.25469 -8.77419,-9.43833 0,-5.18406 3.45604,-9.43833 8.77419,-9.43833 5.3173,0 8.77419,4.25427 8.77419,9.43833 0,5.18364 -3.45689,9.43833 -8.77419,9.43833 z"
       id="path17"
       style="fill:#3c6eb4" />
    <path
       d="m 355.01479,368.3337 c 0,-1.7938 -1.46194,-3.18997 -3.25659,-3.18997 -1.79422,0 -3.25743,1.39659 -3.25743,3.18997 l 0,17.1499 c -1.66097,-3.05756 -5.25026,-5.11786 -9.50495,-5.11786 -8.64052,0 -14.42336,6.51318 -14.42336,15.22074 0,8.70757 5.98229,15.22159 14.42336,15.22159 3.76555,0 7.03057,-1.55429 8.98587,-4.25554 l 0.72317,1.83428 c 0.44782,1.25912 1.64917,2.16024 3.06051,2.16024 1.78621,0 3.24984,-1.45435 3.24984,-3.24815 0,-0.005 0,-0.009 0,-0.0139 l 0,0 0,-38.95128 -4.2e-4,0 z m -15.22116,36.69111 c -5.31731,0 -8.70715,-4.25469 -8.70715,-9.43833 0,-5.18406 3.38984,-9.43833 8.70715,-9.43833 5.31773,0 8.70714,4.0544 8.70714,9.43833 0,5.38309 -3.38941,9.43833 -8.70714,9.43833 z"
       id="path19"
       style="fill:#3c6eb4" />
    <path
       d="m 287.21553,365.34023 c -0.59414,-0.0877 -1.19966,-0.13198 -1.80097,-0.13198 -6.73118,0 -12.20746,5.4767 -12.20746,12.20788 l 0,3.8132 -3.98903,0 c -1.46237,0 -2.65908,1.19671 -2.65908,2.65781 0,1.46321 1.19671,2.93738 2.65908,2.93738 l 3.98819,0 0,20.46004 c 0,1.79464 1.46236,3.25743 3.25658,3.25743 1.79507,0 3.25744,-1.46279 3.25744,-3.25743 l 0,-20.46004 4.40986,0 c 1.46194,0 2.65823,-1.47417 2.65823,-2.93738 0,-1.46152 -1.19629,-2.65823 -2.65823,-2.65823 l -4.40733,0 0,-3.8132 c 0,-3.13852 2.55323,-6.11469 5.69175,-6.11469 0.28294,0 0.56757,0.0211 0.84672,0.062 1.78031,0.26355 3.4358,-0.54269 3.70019,-2.32342 0.2627,-1.77904 -0.96606,-3.43538 -2.74594,-3.69935 z"
       id="path21"
       style="fill:#3c6eb4" />
    <path
       d="m 482.01243,363.57426 c 0,-10.06788 -8.16108,-18.22938 -18.22897,-18.22938 -10.06282,0 -18.22179,8.15475 -18.22854,18.21631 l -4.2e-4,-4.2e-4 0,14.1071 4.2e-4,4.2e-4 c 0.005,2.28463 1.85832,4.13409 4.14463,4.13409 0.007,0 0.0127,-8.4e-4 0.0194,-8.4e-4 l 0.001,8.4e-4 14.07083,0 0,0 c 10.06409,-0.004 18.22138,-8.16276 18.22138,-18.22812 z"
       id="path25"
       style="fill:#294172" />
    <path
       d="m 469.13577,349.66577 c -4.72528,0 -8.55576,3.83049 -8.55576,8.55577 0,0.002 0,0.004 0,0.006 l 0,4.52836 -4.51444,0 c -8.5e-4,0 -8.5e-4,0 -0.001,0 -4.72528,0 -8.55576,3.81193 -8.55576,8.53678 0,4.72528 3.83048,8.55577 8.55576,8.55577 4.72486,0 8.55534,-3.83049 8.55534,-8.55577 0,-0.002 0,-0.004 0,-0.006 l 0,-4.54733 4.51444,0 c 8.5e-4,0 0.001,0 0.002,0 4.72486,0 8.55534,-3.79296 8.55534,-8.51781 0,-4.72528 -3.83048,-8.55577 -8.55534,-8.55577 z m -8.55576,21.63483 c -0.004,2.48998 -2.02446,4.50811 -4.51571,4.50811 -2.49378,0 -4.53426,-2.02193 -4.53426,-4.5157 0,-2.49421 2.04048,-4.55366 4.53426,-4.55366 0.002,0 0.004,4.2e-4 0.006,4.2e-4 l 3.86971,0 c 0.001,0 0.002,-4.2e-4 0.003,-4.2e-4 0.35209,0 0.63799,0.28505 0.63799,0.63715 0,4.2e-4 -4.2e-4,8.4e-4 -4.2e-4,0.001 l 0,3.92284 -4.2e-4,0 z m 8.55534,-8.5448 c -0.001,0 -0.003,0 -0.004,0 l -3.87223,0 c -8.4e-4,0 -0.002,0 -0.002,0 -0.35252,0 -0.63757,-0.28506 -0.63757,-0.63758 l 0,-4.2e-4 0,-3.90343 c 0.004,-2.49083 2.02446,-4.50854 4.51571,-4.50854 2.49378,0 4.53468,2.02193 4.53468,4.51613 4.2e-4,2.49336 -2.04048,4.53384 -4.53426,4.53384 z"
       id="path29"
       style="fill:#3c6eb4" />
    <path
       d="m 460.58001,362.7558 0,-4.52836 c 0,-0.002 0,-0.004 0,-0.006 0,-4.72528 3.83048,-8.55577 8.55576,-8.55577 0.71685,0 1.22623,0.0805 1.88952,0.25469 0.96774,0.25385 1.75796,1.04618 1.75838,1.96922 4.2e-4,1.11575 -0.80919,1.92621 -2.0194,1.92621 -0.57642,0 -0.78473,-0.11048 -1.62892,-0.11048 -2.49125,0 -4.51149,2.01771 -4.51571,4.50854 l 0,3.90385 0,4.2e-4 c 0,0.35252 0.28505,0.63758 0.63757,0.63758 4.3e-4,0 0.001,0 0.002,0 l 2.96521,0 c 1.10521,0 1.99747,0.88467 1.99832,1.99283 0,1.10816 -0.89353,1.99114 -1.99832,1.99114 l -3.60489,0 0,4.54733 c 0,0.002 0,0.004 0,0.006 0,4.72485 -3.83048,8.55534 -8.55534,8.55534 -0.71684,0 -1.22623,-0.0805 -1.88952,-0.25469 -0.96774,-0.25343 -1.75838,-1.04618 -1.7588,-1.9688 0,-1.11575 0.80919,-1.92663 2.01982,-1.92663 0.576,0 0.78473,0.11048 1.6285,0.11048 2.49125,0 4.51191,-2.01771 4.51613,-4.50811 0,0 0,-3.92368 0,-3.9241 0,-0.35168 -0.2859,-0.63673 -0.63799,-0.63673 -4.3e-4,0 -8.5e-4,0 -0.002,0 l -2.96521,-4.2e-4 c -1.10521,0 -1.99831,-0.88214 -1.99831,-1.9903 -4.3e-4,-1.11533 0.90238,-1.99367 2.01939,-1.99367 l 3.58339,0 0,0 z"
       id="path31"
       style="fill:#ffffff" />
    <path
       d="m 477.41661,378.55292 2.81558,0 0,0.37898 -1.18152,0 0,2.94935 -0.45254,0 0,-2.94935 -1.18152,0 0,-0.37898 m 3.26144,0 0.67101,0 0.84937,2.26496 0.85381,-2.26496 0.67102,0 0,3.32833 -0.43917,0 0,-2.9226 -0.85828,2.28279 -0.45255,0 -0.85827,-2.28279 0,2.9226 -0.43694,0 0,-3.32833"
       id="text6223"
       style="fill:#294172;enable-background:new" />
  </g>
  <path
     d="m 181.98344,61.675273 2.81558,0 0,0.37898 -1.18152,0 0,2.94935 -0.45254,0 0,-2.94935 -1.18152,0 0,-0.37898 m 3.26144,0 0.67101,0 0.84937,2.26496 0.85381,-2.26496 0.67102,0 0,3.32833 -0.43917,0 0,-2.9226 -0.85828,2.28279 -0.45255,0 -0.85827,-2.28279 0,2.9226 -0.43694,0 0,-3.32833"
     id="path2391"
     style="fill:#294172;enable-background:new" />
</svg>

<?xml version="1.0" encoding="UTF-8" standalone="no"?>
<!-- Created with Inkscape (http://www.inkscape.org/) -->
<svg
   xmlns:dc="http://purl.org/dc/elements/1.1/"
   xmlns:cc="http://creativecommons.org/ns#"
   xmlns:rdf="http://www.w3.org/1999/02/22-rdf-syntax-ns#"
   xmlns:svg="http://www.w3.org/2000/svg"
   xmlns="http://www.w3.org/2000/svg"
   xmlns:sodipodi="http://sodipodi.sourceforge.net/DTD/sodipodi-0.dtd"
   xmlns:inkscape="http://www.inkscape.org/namespaces/inkscape"
   version="1.0"
   width="220"
   height="70"
   id="svg6180"
   sodipodi:version="0.32"
   inkscape:version="0.46"
   sodipodi:docname="title_logo.svg"
   inkscape:output_extension="org.inkscape.output.svg.inkscape">
  <metadata
     id="metadata16">
    <rdf:RDF>
      <cc:Work
         rdf:about="">
        <dc:format>image/svg+xml</dc:format>
        <dc:type
           rdf:resource="http://purl.org/dc/dcmitype/StillImage" />
      </cc:Work>
    </rdf:RDF>
  </metadata>
  <sodipodi:namedview
     inkscape:window-height="990"
     inkscape:window-width="1680"
     inkscape:pageshadow="2"
     inkscape:pageopacity="0.0"
     guidetolerance="10.0"
     gridtolerance="10.0"
     objecttolerance="10.0"
     borderopacity="1.0"
     bordercolor="#666666"
     pagecolor="#ffffff"
     id="base"
     showgrid="false"
     showguides="true"
     inkscape:guide-bbox="true"
     inkscape:zoom="7.4053365"
     inkscape:cx="173.22629"
     inkscape:cy="36.314321"
     inkscape:window-x="-5"
     inkscape:window-y="-3"
     inkscape:current-layer="svg6180" />
  <defs
     id="defs6182">
    <inkscape:perspective
       sodipodi:type="inkscape:persp3d"
       inkscape:vp_x="0 : 35 : 1"
       inkscape:vp_y="0 : 1000 : 0"
       inkscape:vp_z="220 : 35 : 1"
       inkscape:persp3d-origin="110 : 23.333333 : 1"
       id="perspective18" />
  </defs>
  <g
     transform="translate(-266.55899,-345.34488)"
     id="layer1">
    <path
       d="M 316.7736,397.581 C 316.7736,397.581 316.7736,397.581 296.23471,397.581 C 296.56741,402.03345 300.15628,405.35709 304.94186,405.35709 C 308.33169,405.35709 311.25642,403.96093 313.5828,401.70202 C 314.04833,401.23523 314.58006,401.1024 315.17799,401.1024 C 315.9758,401.1024 316.7736,401.50172 317.30491,402.16628 C 317.63761,402.63181 317.83707,403.16354 317.83707,403.69485 C 317.83707,404.42603 317.50437,405.22342 316.90601,405.82219 C 314.11411,408.81271 309.39515,410.80722 304.74198,410.80722 C 296.30049,410.80722 289.52124,404.02755 289.52124,395.58564 C 289.52124,387.14415 296.10146,380.3649 304.54295,380.3649 C 312.91824,380.3649 319.16618,386.87807 319.16618,395.45239 C 319.16618,396.71657 318.03694,397.581 316.7736,397.581 z M 304.54295,385.81588 C 300.08966,385.81588 297.0321,388.74061 296.36796,392.99319 C 306.40422,392.99319 312.71879,392.99319 312.71879,392.99319 C 312.12043,388.93964 308.93005,385.81588 304.54295,385.81588 z"
       id="path11"
       style="fill:#3c6eb4" />
    <path
       d="M 375.46344,410.80807 C 367.02238,410.80807 360.2427,404.02839 360.2427,395.58648 C 360.2427,387.14499 367.02238,380.36574 375.46344,380.36574 C 383.90578,380.36574 390.68503,387.14499 390.68503,395.58648 C 390.68461,404.02797 383.90535,410.80807 375.46344,410.80807 z M 375.46344,386.14815 C 370.14656,386.14815 366.68967,390.40242 366.68967,395.58648 C 366.68967,400.77012 370.14656,405.02481 375.46344,405.02481 C 380.78075,405.02481 384.23848,400.77012 384.23848,395.58648 C 384.23806,390.40242 380.78075,386.14815 375.46344,386.14815 z"
       id="path13"
       style="fill:#3c6eb4" />
    <path
       d="M 412.66183,380.36574 C 408.2022,380.36574 405.25217,381.68474 402.64792,384.9953 L 402.40756,383.45535 L 402.40756,383.45535 C 402.20558,381.84792 400.8343,380.60609 399.17374,380.60609 C 397.37235,380.60609 395.91168,382.06509 395.91168,383.8669 C 395.91168,383.86943 395.91168,383.87196 395.91168,383.87449 L 395.91168,383.87449 L 395.91168,383.87744 L 395.91168,383.87744 L 395.91168,407.28456 C 395.91168,409.0792 397.37362,410.54199 399.16868,410.54199 C 400.96333,410.54199 402.42612,409.0792 402.42612,407.28456 L 402.42612,394.72247 C 402.42612,389.00626 407.41114,386.14815 412.66225,386.14815 C 414.25744,386.14815 415.51951,384.81862 415.51951,383.223 C 415.51951,381.62739 414.25744,380.36574 412.66183,380.36574 z"
       id="path15"
       style="fill:#3c6eb4" />
    <path
       d="M 447.02614,395.58648 C 447.09277,387.41107 441.24288,380.36574 431.80414,380.36574 C 423.36222,380.36574 416.51635,387.14499 416.51635,395.58648 C 416.51635,404.02839 423.16319,410.80807 431.2062,410.80807 C 435.22054,410.80807 438.83302,408.74186 440.44466,406.58289 L 441.23825,408.59723 L 441.23825,408.59723 C 441.66414,409.729 442.75585,410.5344 444.03605,410.5344 C 445.68606,410.5344 447.02361,409.19769 447.02614,407.54895 L 447.02614,407.54895 L 447.02614,399.74208 L 447.02614,399.74208 L 447.02614,395.58648 z M 431.80414,405.02481 C 426.48641,405.02481 423.02995,400.77012 423.02995,395.58648 C 423.02995,390.40242 426.48599,386.14815 431.80414,386.14815 C 437.12144,386.14815 440.57833,390.40242 440.57833,395.58648 C 440.57833,400.77012 437.12144,405.02481 431.80414,405.02481 z"
       id="path17"
       style="fill:#3c6eb4" />
    <path
       d="M 355.01479,368.3337 C 355.01479,366.5399 353.55285,365.14373 351.7582,365.14373 C 349.96398,365.14373 348.50077,366.54032 348.50077,368.3337 L 348.50077,385.4836 C 346.8398,382.42604 343.25051,380.36574 338.99582,380.36574 C 330.3553,380.36574 324.57246,386.87892 324.57246,395.58648 C 324.57246,404.29405 330.55475,410.80807 338.99582,410.80807 C 342.76137,410.80807 346.02639,409.25378 347.98169,406.55253 L 348.70486,408.38681 C 349.15268,409.64593 350.35403,410.54705 351.76537,410.54705 C 353.55158,410.54705 355.01521,409.0927 355.01521,407.2989 C 355.01521,407.29384 355.01521,407.29004 355.01521,407.28498 L 355.01521,407.28498 L 355.01521,368.3337 L 355.01479,368.3337 z M 339.79363,405.02481 C 334.47632,405.02481 331.08648,400.77012 331.08648,395.58648 C 331.08648,390.40242 334.47632,386.14815 339.79363,386.14815 C 345.11136,386.14815 348.50077,390.20255 348.50077,395.58648 C 348.50077,400.96957 345.11136,405.02481 339.79363,405.02481 z"
       id="path19"
       style="fill:#3c6eb4" />
    <path
       d="M 287.21553,365.34023 C 286.62139,365.25253 286.01587,365.20825 285.41456,365.20825 C 278.68338,365.20825 273.2071,370.68495 273.2071,377.41613 L 273.2071,381.22933 L 269.21807,381.22933 C 267.7557,381.22933 266.55899,382.42604 266.55899,383.88714 C 266.55899,385.35035 267.7557,386.82452 269.21807,386.82452 L 273.20626,386.82452 L 273.20626,407.28456 C 273.20626,409.0792 274.66862,410.54199 276.46284,410.54199 C 278.25791,410.54199 279.72028,409.0792 279.72028,407.28456 L 279.72028,386.82452 L 284.13014,386.82452 C 285.59208,386.82452 286.78837,385.35035 286.78837,383.88714 C 286.78837,382.42562 285.59208,381.22891 284.13014,381.22891 L 279.72281,381.22891 L 279.72281,377.41571 C 279.72281,374.27719 282.27604,371.30102 285.41456,371.30102 C 285.6975,371.30102 285.98213,371.3221 286.26128,371.363 C 288.04159,371.62655 289.69708,370.82031 289.96147,369.03958 C 290.22417,367.26054 288.99541,365.6042 287.21553,365.34023 z"
       id="path21"
       style="fill:#3c6eb4" />
    <path
       d="M 482.01243,363.57426 C 482.01243,353.50638 473.85135,345.34488 463.78346,345.34488 C 453.72064,345.34488 445.56167,353.49963 445.55492,363.56119 L 445.5545,363.56077 L 445.5545,377.66787 L 445.55492,377.66829 C 445.5604,379.95292 447.41324,381.80238 449.69955,381.80238 C 449.7063,381.80238 449.71221,381.80154 449.71895,381.80154 L 449.72022,381.80238 L 463.79105,381.80238 L 463.79105,381.80238 C 473.85514,381.79817 482.01243,373.63962 482.01243,363.57426 z"
       id="path25"
       style="fill:#294172" />
    <path
       d="M 469.13577,349.66577 C 464.41049,349.66577 460.58001,353.49626 460.58001,358.22154 C 460.58001,358.22322 460.58001,358.22533 460.58001,358.22744 L 460.58001,362.7558 L 456.06557,362.7558 C 456.06472,362.7558 456.06472,362.7558 456.0643,362.7558 C 451.33902,362.7558 447.50854,366.56773 447.50854,371.29258 C 447.50854,376.01786 451.33902,379.84835 456.0643,379.84835 C 460.78916,379.84835 464.61964,376.01786 464.61964,371.29258 C 464.61964,371.2909 464.61964,371.28879 464.61964,371.28668 L 464.61964,366.73935 L 469.13408,366.73935 C 469.13493,366.73935 469.13535,366.73935 469.13577,366.73935 C 473.86063,366.73935 477.69111,362.94639 477.69111,358.22154 C 477.69111,353.49626 473.86063,349.66577 469.13577,349.66577 z M 460.58001,371.3006 C 460.57621,373.79058 458.55555,375.80871 456.0643,375.80871 C 453.57052,375.80871 451.53004,373.78678 451.53004,371.29301 C 451.53004,368.7988 453.57052,366.73935 456.0643,366.73935 C 456.06641,366.73935 456.06852,366.73977 456.0702,366.73977 L 459.93991,366.73977 C 459.94117,366.73977 459.94201,366.73935 459.94286,366.73935 C 460.29495,366.73935 460.58085,367.0244 460.58085,367.3765 C 460.58085,367.37692 460.58043,367.37734 460.58043,367.37776 L 460.58043,371.3006 L 460.58001,371.3006 z M 469.13535,362.7558 C 469.13408,362.7558 469.1324,362.7558 469.13113,362.7558 L 465.2589,362.7558 C 465.25806,362.7558 465.25721,362.7558 465.25679,362.7558 C 464.90427,362.7558 464.61922,362.47074 464.61922,362.11822 L 464.61922,362.1178 L 464.61922,358.21437 C 464.62344,355.72354 466.64368,353.70583 469.13493,353.70583 C 471.62871,353.70583 473.66961,355.72776 473.66961,358.22196 C 473.67003,360.71532 471.62913,362.7558 469.13535,362.7558 z"
       id="path29"
       style="fill:#3c6eb4" />
    <path
       d="M 460.58001,362.7558 L 460.58001,358.22744 C 460.58001,358.22533 460.58001,358.22322 460.58001,358.22154 C 460.58001,353.49626 464.41049,349.66577 469.13577,349.66577 C 469.85262,349.66577 470.362,349.74631 471.02529,349.92046 C 471.99303,350.17431 472.78325,350.96664 472.78367,351.88968 C 472.78409,353.00543 471.97448,353.81589 470.76427,353.81589 C 470.18785,353.81589 469.97954,353.70541 469.13535,353.70541 C 466.6441,353.70541 464.62386,355.72312 464.61964,358.21395 L 464.61964,362.1178 L 464.61964,362.11822 C 464.61964,362.47074 464.90469,362.7558 465.25721,362.7558 C 465.25764,362.7558 465.25848,362.7558 465.25932,362.7558 L 468.22453,362.7558 C 469.32974,362.7558 470.222,363.64047 470.22285,364.74863 C 470.22285,365.85679 469.32932,366.73977 468.22453,366.73977 L 464.61964,366.73977 L 464.61964,371.2871 C 464.61964,371.28921 464.61964,371.29132 464.61964,371.29343 C 464.61964,376.01828 460.78916,379.84877 456.0643,379.84877 C 455.34746,379.84877 454.83807,379.76823 454.17478,379.59408 C 453.20704,379.34065 452.4164,378.5479 452.41598,377.62528 C 452.41598,376.50953 453.22517,375.69865 454.4358,375.69865 C 455.0118,375.69865 455.22053,375.80913 456.0643,375.80913 C 458.55555,375.80913 460.57621,373.79142 460.58043,371.30102 C 460.58043,371.30102 460.58043,367.37734 460.58043,367.37692 C 460.58043,367.02524 460.29453,366.74019 459.94244,366.74019 C 459.94201,366.74019 459.94159,366.74019 459.94075,366.74019 L 456.97554,366.73977 C 455.87033,366.73977 454.97723,365.85763 454.97723,364.74947 C 454.9768,363.63414 455.87961,362.7558 456.99662,362.7558 L 460.58001,362.7558 L 460.58001,362.7558 z"
       id="path31"
       style="fill:#ffffff" />
    <path
       d="M 477.41661,378.55292 L 480.23219,378.55292 L 480.23219,378.9319 L 479.05067,378.9319 L 479.05067,381.88125 L 478.59813,381.88125 L 478.59813,378.9319 L 477.41661,378.9319 L 477.41661,378.55292 M 480.67805,378.55292 L 481.34906,378.55292 L 482.19843,380.81788 L 483.05224,378.55292 L 483.72326,378.55292 L 483.72326,381.88125 L 483.28409,381.88125 L 483.28409,378.95865 L 482.42581,381.24144 L 481.97326,381.24144 L 481.11499,378.95865 L 481.11499,381.88125 L 480.67805,381.88125 L 480.67805,378.55292"
       id="text6223"
       style="fill:#294172;enable-background:new" />
  </g>
  <path
     d="M 181.98344,61.675273 L 184.79902,61.675273 L 184.79902,62.054253 L 183.6175,62.054253 L 183.6175,65.003603 L 183.16496,65.003603 L 183.16496,62.054253 L 181.98344,62.054253 L 181.98344,61.675273 M 185.24488,61.675273 L 185.91589,61.675273 L 186.76526,63.940233 L 187.61907,61.675273 L 188.29009,61.675273 L 188.29009,65.003603 L 187.85092,65.003603 L 187.85092,62.081003 L 186.99264,64.363793 L 186.54009,64.363793 L 185.68182,62.081003 L 185.68182,65.003603 L 185.24488,65.003603 L 185.24488,61.675273"
     id="path2391"
     style="fill:#294172;enable-background:new" />
</svg>
